;FLAVOR:RepRap
;TIME:746
;Filament used: 0.755082m
;Layer height: 0.2
;Generated with Cura_SteamEngine 2.6.2
M190 S60
M104 S200
M109 S200
G21 ;metric values
G90 ;absolute positioning
M82 ;set extruder to absolute mode
M107 ;start with the fan off
G28 X0 Y0 ;move X/Y to min endstops
G28 Z0 ;move Z to min endstops
G1 Z15.0 F9000 ;move the platform down 15mm
G92 E0 ;zero the extruded length
G1 F200 E3 ;extrude 3mm of feed stock
G92 E0 ;zero the extruded length again
G1 F9000
;Put printing message on LCD screen
M117 Printing...
;LAYER_COUNT:31
;LAYER:0
M107
G0 F3600 X87.821 Y86.374 Z0.3
;TYPE:SKIRT
G1 F1800 X88.068 Y86.128 E0.01739
G1 X88.681 Y85.569 E0.05878
G1 X88.86 Y85.415 E0.07056
G1 X89.507 Y84.895 E0.11197
G1 X89.788 Y84.69 E0.12933
G1 X91.168 Y83.775 E0.21193
G1 X91.576 Y83.54 E0.23542
G1 X93.06 Y82.802 E0.31811
G1 X93.488 Y82.62 E0.34132
G1 X95.053 Y82.068 E0.42411
G1 X95.386 Y81.968 E0.44145
G1 X96.189 Y81.765 E0.48278
G1 X96.538 Y81.694 E0.50054
G1 X98.176 Y81.44 E0.58324
G1 X98.641 Y81.397 E0.60654
G1 X100.298 Y81.346 E0.68925
G1 X100.766 Y81.36 E0.71261
G1 X102.415 Y81.513 E0.79523
G1 X102.76 Y81.561 E0.81261
G1 X103.576 Y81.713 E0.85402
G1 X104.034 Y81.829 E0.87759
G1 X106.402 Y82.584 E1.00159
G1 X106.94 Y82.802 E1.03055
G1 X108.422 Y83.539 E1.11312
G1 X108.829 Y83.774 E1.13657
G1 X110.211 Y84.69 E1.21929
G1 X110.493 Y84.895 E1.23668
G1 X111.14 Y85.415 E1.27809
G1 X111.404 Y85.649 E1.29569
G1 X112.594 Y86.803 E1.3784
G1 X112.91 Y87.149 E1.40177
G1 X113.948 Y88.439 E1.48438
G1 X114.218 Y88.821 E1.50772
G1 X115.091 Y90.231 E1.59045
G1 X115.312 Y90.643 E1.61378
G1 X116.005 Y92.149 E1.69649
G1 X116.174 Y92.585 E1.71982
G1 X116.676 Y94.163 E1.80243
G1 X116.766 Y94.499 E1.81978
G1 X116.944 Y95.309 E1.86116
G1 X117.004 Y95.66 E1.87893
G1 X117.207 Y97.306 E1.96167
G1 X117.236 Y97.765 E1.98461
G1 X117.263 Y114.85 E2.83699
G1 X117.224 Y115.4 E2.8645
G1 X117.106 Y115.938 E2.89197
G1 X116.911 Y116.453 E2.91945
G1 X116.644 Y116.935 E2.94694
G1 X116.31 Y117.373 E2.97442
G1 X115.916 Y117.758 E3.0019
G1 X115.47 Y118.083 E3.02943
G1 X114.982 Y118.339 E3.05693
G1 X114.463 Y118.522 E3.08438
G1 X113.922 Y118.628 E3.11189
G1 X113.463 Y118.656 E3.13483
G1 X86.538 Y118.656 E4.47812
G1 X85.988 Y118.616 E4.50563
G1 X85.45 Y118.497 E4.53312
G1 X84.935 Y118.301 E4.56062
G1 X84.454 Y118.033 E4.58809
G1 X84.016 Y117.699 E4.61557
G1 X83.632 Y117.304 E4.64305
G1 X83.308 Y116.858 E4.67055
G1 X83.053 Y116.37 E4.69802
G1 X82.87 Y115.85 E4.72553
G1 X82.765 Y115.309 E4.75302
G1 X82.738 Y114.85 E4.77596
G1 X82.764 Y97.766 E5.62828
G1 X82.793 Y97.307 E5.65123
G1 X82.996 Y95.661 E5.73397
G1 X83.082 Y95.199 E5.75742
G1 X83.486 Y93.593 E5.84004
G1 X83.628 Y93.147 E5.86339
G1 X84.227 Y91.601 E5.94611
G1 X84.422 Y91.177 E5.96939
G1 X85.206 Y89.716 E6.05211
G1 X85.452 Y89.319 E6.07541
G1 X86.409 Y87.966 E6.15809
G1 X86.704 Y87.598 E6.18162
G1 X87.821 Y86.374 E6.26429
G0 F3600 X88.117 Y86.644
G1 F1800 X88.337 Y86.424 E6.27981
G1 X88.95 Y85.865 E6.3212
G1 X89.111 Y85.727 E6.33178
G1 X89.758 Y85.207 E6.3732
G1 X90.009 Y85.023 E6.38872
G1 X91.389 Y84.108 E6.47133
G1 X91.754 Y83.898 E6.49234
G1 X93.238 Y83.16 E6.57502
G1 X93.621 Y82.998 E6.59577
G1 X95.186 Y82.446 E6.67856
G1 X95.484 Y82.356 E6.6941
G1 X96.287 Y82.153 E6.73542
G1 X96.599 Y82.089 E6.75131
G1 X98.237 Y81.835 E6.834
G1 X98.653 Y81.797 E6.85484
G1 X100.31 Y81.746 E6.93755
G1 X100.729 Y81.759 E6.95847
G1 X102.378 Y81.912 E7.04109
G1 X102.687 Y81.954 E7.05665
G1 X103.503 Y82.106 E7.09806
G1 X103.913 Y82.21 E7.11916
G1 X106.281 Y82.965 E7.24316
G1 X106.762 Y83.16 E7.26905
G1 X108.244 Y83.897 E7.35163
G1 X108.608 Y84.107 E7.37259
G1 X109.99 Y85.023 E7.45531
G1 X110.242 Y85.207 E7.47088
G1 X110.889 Y85.727 E7.51229
G1 X111.126 Y85.936 E7.52806
G1 X112.316 Y87.09 E7.61076
G1 X112.598 Y87.4 E7.63166
G1 X113.636 Y88.69 E7.71427
G1 X113.878 Y89.031 E7.73513
G1 X114.751 Y90.441 E7.81787
G1 X114.949 Y90.81 E7.83876
G1 X115.642 Y92.316 E7.92147
G1 X115.793 Y92.706 E7.94233
G1 X116.295 Y94.284 E8.02495
G1 X116.376 Y94.585 E8.0405
G1 X116.554 Y95.395 E8.08187
G1 X116.607 Y95.709 E8.09776
G1 X116.81 Y97.355 E8.1805
G1 X116.836 Y97.766 E8.20105
G1 X116.863 Y114.851 E9.05342
G1 X116.824 Y115.37 E9.07939
G1 X116.706 Y115.878 E9.10541
G1 X116.512 Y116.361 E9.13138
G1 X116.246 Y116.81 E9.15741
G1 X115.914 Y117.212 E9.18343
G1 X115.525 Y117.559 E9.20943
G1 X115.088 Y117.842 E9.23541
G1 X114.613 Y118.056 E9.2614
G1 X114.11 Y118.194 E9.28742
G1 X113.463 Y118.256 E9.31985
G1 X86.538 Y118.256 E10.66314
G1 X86.018 Y118.216 E10.68916
G1 X85.511 Y118.097 E10.71514
G1 X85.028 Y117.902 E10.74113
G1 X84.58 Y117.636 E10.76712
G1 X84.178 Y117.304 E10.79313
G1 X83.832 Y116.914 E10.81914
G1 X83.549 Y116.476 E10.84516
G1 X83.336 Y116.001 E10.87113
G1 X83.199 Y115.498 E10.89714
G1 X83.138 Y114.851 E10.92956
G1 X83.164 Y97.767 E11.78189
G1 X83.19 Y97.356 E11.80243
G1 X83.393 Y95.71 E11.88518
G1 X83.47 Y95.297 E11.90614
G1 X83.874 Y93.691 E11.98876
G1 X84.001 Y93.292 E12.00965
G1 X84.6 Y91.746 E12.09236
G1 X84.774 Y91.366 E12.11321
G1 X85.558 Y89.905 E12.19594
G1 X85.778 Y89.55 E12.21677
G1 X86.735 Y88.197 E12.29945
G1 X87 Y87.868 E12.32053
G1 X88.117 Y86.644 E12.4032
G0 F3600 X88.412 Y86.914
G1 F1800 X88.607 Y86.719 E12.41696
G1 X89.22 Y86.16 E12.45835
G1 X89.362 Y86.039 E12.46765
G1 X90.009 Y85.519 E12.50907
G1 X90.23 Y85.357 E12.52274
G1 X91.61 Y84.442 E12.60535
G1 X91.932 Y84.256 E12.6239
G1 X93.416 Y83.518 E12.70658
G1 X93.754 Y83.375 E12.72489
G1 X95.319 Y82.823 E12.80769
G1 X95.582 Y82.744 E12.82139
G1 X96.385 Y82.541 E12.86271
G1 X96.66 Y82.484 E12.87672
G1 X98.298 Y82.23 E12.95942
G1 X98.666 Y82.196 E12.97786
G1 X100.323 Y82.145 E13.06056
G1 X100.692 Y82.157 E13.07898
G1 X102.341 Y82.31 E13.1616
G1 X102.613 Y82.348 E13.17531
G1 X103.429 Y82.5 E13.21672
G1 X103.791 Y82.591 E13.23534
G1 X106.159 Y83.346 E13.35934
G1 X106.584 Y83.518 E13.38221
G1 X108.066 Y84.255 E13.46479
G1 X108.387 Y84.44 E13.48327
G1 X109.769 Y85.356 E13.56599
G1 X109.991 Y85.519 E13.57973
G1 X110.638 Y86.039 E13.62114
G1 X110.847 Y86.223 E13.63503
G1 X112.037 Y87.377 E13.71774
G1 X112.286 Y87.65 E13.73617
G1 X113.324 Y88.94 E13.81878
G1 X113.538 Y89.242 E13.83724
G1 X114.411 Y90.652 E13.91998
G1 X114.585 Y90.977 E13.93837
G1 X115.278 Y92.483 E14.02108
G1 X115.412 Y92.828 E14.03954
G1 X115.914 Y94.406 E14.12216
G1 X115.985 Y94.671 E14.13585
G1 X116.163 Y95.481 E14.17722
G1 X116.21 Y95.758 E14.19124
G1 X116.413 Y97.404 E14.27398
G1 X116.436 Y97.766 E14.29208
G1 X116.463 Y114.851 E15.14445
G1 X116.424 Y115.339 E15.16887
G1 X116.306 Y115.814 E15.19329
G1 X116.112 Y116.264 E15.21774
G1 X115.848 Y116.676 E15.24215
G1 X115.52 Y117.039 E15.26656
G1 X115.138 Y117.345 E15.29098
G1 X114.711 Y117.584 E15.31539
G1 X114.251 Y117.751 E15.33981
G1 X113.769 Y117.84 E15.36426
G1 X113.463 Y117.856 E15.37955
G1 X86.538 Y117.856 E16.72284
G1 X86.05 Y117.816 E16.74727
G1 X85.575 Y117.697 E16.7717
G1 X85.126 Y117.503 E16.7961
G1 X84.714 Y117.238 E16.82054
G1 X84.351 Y116.91 E16.84495
G1 X84.046 Y116.527 E16.86938
G1 X83.808 Y116.099 E16.89381
G1 X83.642 Y115.639 E16.91821
G1 X83.553 Y115.158 E16.94261
G1 X83.538 Y114.851 E16.95795
G1 X83.564 Y97.767 E17.81027
G1 X83.587 Y97.405 E17.82837
G1 X83.79 Y95.759 E17.91111
G1 X83.858 Y95.394 E17.92963
G1 X84.262 Y93.788 E18.01225
G1 X84.374 Y93.436 E18.03068
G1 X84.973 Y91.89 E18.1134
G1 X85.127 Y91.555 E18.13179
G1 X85.911 Y90.094 E18.21452
G1 X86.105 Y89.781 E18.23289
G1 X87.062 Y88.428 E18.31557
G1 X87.295 Y88.138 E18.33413
G1 X88.412 Y86.914 E18.4168
G0 F3600 X88.707 Y87.183
G1 F1800 X88.876 Y87.015 E18.42869
G1 X89.489 Y86.456 E18.47008
G1 X89.612 Y86.35 E18.47818
G1 X90.259 Y85.83 E18.51959
G1 X90.451 Y85.69 E18.53144
G1 X91.831 Y84.775 E18.61405
G1 X92.11 Y84.614 E18.63012
G1 X93.594 Y83.876 E18.71281
G1 X93.887 Y83.752 E18.72868
G1 X95.452 Y83.2 E18.81148
G1 X95.68 Y83.131 E18.82336
G1 X96.483 Y82.928 E18.86468
G1 X96.722 Y82.88 E18.87684
G1 X98.36 Y82.626 E18.95954
G1 X98.678 Y82.596 E18.97548
G1 X100.335 Y82.545 E19.05818
G1 X100.655 Y82.555 E19.07416
G1 X102.304 Y82.708 E19.15678
G1 X102.54 Y82.741 E19.16867
G1 X103.356 Y82.893 E19.21008
G1 X103.67 Y82.972 E19.22623
G1 X106.038 Y83.727 E19.35023
G1 X106.406 Y83.876 E19.37004
G1 X107.888 Y84.613 E19.45261
G1 X108.166 Y84.774 E19.46864
G1 X109.548 Y85.69 E19.55136
G1 X109.741 Y85.83 E19.56325
G1 X110.388 Y86.35 E19.60467
G1 X110.569 Y86.511 E19.61675
G1 X111.759 Y87.665 E19.69945
G1 X111.975 Y87.901 E19.71541
G1 X113.013 Y89.191 E19.79802
G1 X113.198 Y89.452 E19.81398
G1 X114.071 Y90.862 E19.89672
G1 X114.222 Y91.144 E19.91268
G1 X114.915 Y92.65 E19.99538
G1 X115.031 Y92.949 E20.01139
G1 X115.533 Y94.527 E20.094
G1 X115.594 Y94.757 E20.10587
G1 X115.772 Y95.567 E20.14725
G1 X115.813 Y95.807 E20.15939
G1 X116.016 Y97.453 E20.24213
G1 X116.036 Y97.767 E20.25783
G1 X116.063 Y114.852 E21.11021
G1 X116.024 Y115.306 E21.13294
G1 X115.906 Y115.746 E21.15567
G1 X115.713 Y116.159 E21.17841
G1 X115.451 Y116.532 E21.20115
G1 X115.128 Y116.853 E21.22387
G1 X114.754 Y117.113 E21.2466
G1 X114.34 Y117.304 E21.26934
G1 X113.899 Y117.419 E21.29208
G1 X113.463 Y117.456 E21.31391
G1 X86.538 Y117.456 E22.6572
G1 X86.084 Y117.416 E22.67994
G1 X85.644 Y117.298 E22.70267
G1 X85.232 Y117.104 E22.72539
G1 X84.859 Y116.841 E22.74816
G1 X84.538 Y116.518 E22.77088
G1 X84.279 Y116.143 E22.79362
G1 X84.089 Y115.729 E22.81634
G1 X83.974 Y115.288 E22.83908
G1 X83.938 Y114.852 E22.8609
G1 X83.964 Y97.768 E23.71323
G1 X83.984 Y97.454 E23.72893
G1 X84.187 Y95.808 E23.81167
G1 X84.246 Y95.492 E23.82771
G1 X84.65 Y93.886 E23.91033
G1 X84.747 Y93.581 E23.92629
G1 X85.346 Y92.035 E24.00901
G1 X85.479 Y91.745 E24.02493
G1 X86.263 Y90.284 E24.10765
G1 X86.431 Y90.012 E24.1236
G1 X87.388 Y88.659 E24.20628
G1 X87.59 Y88.407 E24.22239
G1 X88.707 Y87.183 E24.30506
G0 F3600 X89.003 Y87.453
G1 F1800 X89.146 Y87.31 E24.31515
G1 X89.759 Y86.751 E24.35654
G1 X89.863 Y86.662 E24.36337
G1 X90.51 Y86.142 E24.40478
G1 X90.672 Y86.023 E24.41481
G1 X92.052 Y85.108 E24.49742
G1 X92.288 Y84.972 E24.51101
G1 X93.772 Y84.234 E24.5937
G1 X94.02 Y84.129 E24.60713
G1 X95.585 Y83.577 E24.68992
G1 X95.778 Y83.519 E24.69998
G1 X96.581 Y83.316 E24.7413
G1 X96.783 Y83.275 E24.75158
G1 X98.421 Y83.021 E24.83428
G1 X98.69 Y82.996 E24.84776
G1 X100.347 Y82.945 E24.93047
G1 X100.618 Y82.953 E24.94399
G1 X102.267 Y83.106 E25.02661
G1 X102.467 Y83.134 E25.03669
G1 X103.283 Y83.286 E25.0781
G1 X103.548 Y83.353 E25.09174
G1 X105.916 Y84.108 E25.21574
G1 X106.228 Y84.234 E25.23252
G1 X107.71 Y84.971 E25.3151
G1 X107.945 Y85.107 E25.32865
G1 X109.327 Y86.023 E25.41136
G1 X109.49 Y86.142 E25.42143
G1 X110.137 Y86.662 E25.46284
G1 X110.291 Y86.798 E25.47309
G1 X111.481 Y87.952 E25.5558
G1 X111.663 Y88.152 E25.56929
G1 X112.701 Y89.442 E25.65189
G1 X112.857 Y89.663 E25.66539
G1 X113.73 Y91.073 E25.74813
G1 X113.859 Y91.311 E25.76163
G1 X114.552 Y92.817 E25.84434
G1 X114.649 Y93.07 E25.85786
G1 X115.151 Y94.648 E25.94047
G1 X115.204 Y94.843 E25.95055
G1 X115.382 Y95.653 E25.99193
G1 X115.416 Y95.856 E26.0022
G1 X115.619 Y97.502 E26.08494
G1 X115.636 Y97.768 E26.09824
G1 X115.663 Y114.853 E26.95061
G1 X115.624 Y115.27 E26.97151
G1 X115.506 Y115.672 E26.99241
G1 X115.314 Y116.045 E27.01334
G1 X115.055 Y116.374 E27.03423
G1 X114.739 Y116.648 E27.0551
G1 X114.376 Y116.858 E27.07602
G1 X113.98 Y116.994 E27.09691
G1 X113.463 Y117.056 E27.12288
G1 X86.538 Y117.056 E28.46618
G1 X86.121 Y117.016 E28.48708
G1 X85.719 Y116.898 E28.50798
G1 X85.347 Y116.705 E28.52889
G1 X85.018 Y116.446 E28.54978
G1 X84.744 Y116.129 E28.57068
G1 X84.535 Y115.766 E28.59158
G1 X84.399 Y115.369 E28.61252
G1 X84.338 Y114.853 E28.63844
G1 X84.364 Y97.769 E29.49076
G1 X84.381 Y97.503 E29.50406
G1 X84.584 Y95.857 E29.5868
G1 X84.633 Y95.589 E29.6004
G1 X85.037 Y93.983 E29.68302
G1 X85.12 Y93.725 E29.69654
G1 X85.719 Y92.179 E29.77925
G1 X85.831 Y91.934 E29.79269
G1 X86.615 Y90.473 E29.87541
G1 X86.758 Y90.243 E29.88893
G1 X87.715 Y88.89 E29.97161
G1 X87.886 Y88.677 E29.98523
G1 X89.003 Y87.453 E30.06791
G0 F3600 X89.298 Y87.723
G1 F1800 X89.415 Y87.606 E30.07616
G1 X90.028 Y87.047 E30.11755
G1 X90.113 Y86.974 E30.12314
G1 X90.76 Y86.454 E30.16455
G1 X90.893 Y86.357 E30.17276
G1 X92.273 Y85.442 E30.25537
G1 X92.466 Y85.33 E30.2665
G1 X93.95 Y84.592 E30.34919
G1 X94.153 Y84.506 E30.36019
G1 X95.718 Y83.954 E30.44298
G1 X95.876 Y83.907 E30.45121
G1 X96.679 Y83.704 E30.49253
G1 X96.844 Y83.67 E30.50093
G1 X98.482 Y83.416 E30.58363
G1 X98.703 Y83.396 E30.5947
G1 X100.36 Y83.345 E30.67741
G1 X100.581 Y83.352 E30.68844
G1 X102.23 Y83.505 E30.77106
G1 X102.394 Y83.527 E30.77932
G1 X103.21 Y83.679 E30.82073
G1 X103.427 Y83.734 E30.8319
G1 X105.795 Y84.489 E30.9559
G1 X106.05 Y84.592 E30.96962
G1 X107.532 Y85.329 E31.05219
G1 X107.724 Y85.441 E31.06328
G1 X109.106 Y86.357 E31.146
G1 X109.24 Y86.454 E31.15425
G1 X109.887 Y86.974 E31.19567
G1 X110.012 Y87.085 E31.20401
G1 X111.202 Y88.239 E31.28671
G1 X111.351 Y88.403 E31.29776
G1 X112.389 Y89.693 E31.38037
G1 X112.517 Y89.873 E31.39139
G1 X113.39 Y91.283 E31.47412
G1 X113.495 Y91.479 E31.48522
G1 X114.188 Y92.985 E31.56792
G1 X114.268 Y93.191 E31.57895
G1 X114.77 Y94.769 E31.66156
G1 X114.813 Y94.929 E31.66983
G1 X114.991 Y95.739 E31.71121
G1 X115.019 Y95.905 E31.7196
G1 X115.222 Y97.551 E31.80235
G1 X115.236 Y97.768 E31.81319
G1 X115.263 Y114.853 E32.66557
G1 X115.224 Y115.23 E32.68448
G1 X115.106 Y115.59 E32.70338
G1 X114.916 Y115.918 E32.72229
G1 X114.662 Y116.199 E32.74119
G1 X114.354 Y116.42 E32.7601
G1 X114.007 Y116.572 E32.779
G1 X113.463 Y116.656 E32.80646
G1 X86.538 Y116.656 E34.14976
G1 X86.161 Y116.616 E34.16867
G1 X85.801 Y116.498 E34.18757
G1 X85.474 Y116.308 E34.20644
G1 X85.193 Y116.053 E34.22537
G1 X84.973 Y115.744 E34.24429
G1 X84.821 Y115.397 E34.26319
G1 X84.738 Y114.853 E34.29065
G1 X84.764 Y97.769 E35.14297
G1 X84.778 Y97.552 E35.15382
G1 X84.981 Y95.906 E35.23656
G1 X85.021 Y95.687 E35.24767
G1 X85.425 Y94.081 E35.33029
G1 X85.493 Y93.87 E35.34135
G1 X86.092 Y92.324 E35.42407
G1 X86.184 Y92.123 E35.4351
G1 X86.968 Y90.662 E35.51782
G1 X87.084 Y90.474 E35.52884
G1 X88.041 Y89.121 E35.61152
G1 X88.181 Y88.947 E35.62266
G1 X89.298 Y87.723 E35.70533
G0 F3600 X89.685 Y87.902
G1 F1800 X90.298 Y87.343 E35.74672
G1 X90.364 Y87.286 E35.75107
G1 X91.011 Y86.766 E35.79248
G1 X91.114 Y86.69 E35.79887
G1 X92.494 Y85.775 E35.88148
G1 X92.645 Y85.688 E35.89017
G1 X94.129 Y84.95 E35.97286
G1 X94.286 Y84.884 E35.98136
G1 X95.851 Y84.332 E36.06415
G1 X95.974 Y84.295 E36.07056
G1 X96.777 Y84.092 E36.11188
G1 X96.905 Y84.066 E36.11839
G1 X98.543 Y83.812 E36.20109
G1 X98.715 Y83.796 E36.20971
G1 X100.372 Y83.745 E36.29242
G1 X100.544 Y83.75 E36.301
G1 X102.193 Y83.903 E36.38362
G1 X102.32 Y83.921 E36.39002
G1 X103.136 Y84.073 E36.43143
G1 X103.305 Y84.115 E36.44012
G1 X105.673 Y84.87 E36.56412
G1 X105.871 Y84.95 E36.57478
G1 X107.353 Y85.687 E36.65735
G1 X107.503 Y85.774 E36.666
G1 X108.885 Y86.69 E36.74872
G1 X108.989 Y86.766 E36.75515
G1 X109.636 Y87.286 E36.79656
G1 X109.734 Y87.372 E36.80306
G1 X110.924 Y88.526 E36.88576
G1 X111.04 Y88.653 E36.89435
G1 X112.078 Y89.943 E36.97695
G1 X112.177 Y90.084 E36.98555
G1 X113.05 Y91.494 E37.06828
G1 X113.132 Y91.646 E37.0769
G1 X113.825 Y93.152 E37.15961
G1 X113.887 Y93.313 E37.16822
G1 X114.389 Y94.891 E37.25083
G1 X114.422 Y95.015 E37.25723
G1 X114.6 Y95.825 E37.29861
G1 X114.622 Y95.954 E37.30514
G1 X114.825 Y97.6 E37.38788
G1 X114.836 Y97.769 E37.39633
G1 X114.863 Y114.854 E38.2487
G1 X114.824 Y115.186 E38.26538
G1 X114.707 Y115.499 E38.28205
G1 X114.519 Y115.775 E38.29871
G1 X114.271 Y115.999 E38.31538
G1 X113.978 Y116.158 E38.33201
G1 X113.655 Y116.243 E38.34868
G1 X113.463 Y116.256 E38.35828
G1 X86.538 Y116.256 E39.70157
G1 X86.206 Y116.216 E39.71826
G1 X85.894 Y116.099 E39.73488
G1 X85.617 Y115.911 E39.75158
G1 X85.394 Y115.663 E39.76822
G1 X85.235 Y115.369 E39.7849
G1 X85.151 Y115.045 E39.8016
G1 X85.138 Y114.854 E39.81115
G1 X85.164 Y97.77 E40.66347
G1 X85.175 Y97.601 E40.67192
G1 X85.378 Y95.955 E40.75466
G1 X85.409 Y95.784 E40.76333
G1 X85.813 Y94.178 E40.84595
